X:25
T:The Weatherman
C:Alasdair White
R:Reel
Z:Gwen 2021-11-20 d'après le "tune walkthrough" de Jenn Butterworth
M:2/2
K:Dm
|: d3c AcAG | GFDC A,3C | DFED G2GA- | A2AG A/A/AGA |
   d3c AcAG | GFDE F3D | G3F GAcA |1 GFDC D2cD :|2 GFDC D2ga |
|: gfdc d2ed | fdeg fdcA | dcAG GFDE | FAED EDCD |
   A3F GAcA | GFDE F3D | G3F GAcA |1 GFDC D2ga :|2 GFDC D2cD ||

